X:1
T:Banks and Braes o' Bonnie Doon Dix.43
T:Banks and Braes o' Bonnie Doon Dix.43
T:Burns
C:Burns
L:1/8
Q:3/8=70
M:6/8
K:D
V:1 treble 
V:1
 A |"^qu in ms" d2 d ede | (fg)f (ed)e | (fe)d dBA | (AB)d e2 A | d2 d (ed)e | fgf (ed)e | %7
w: Ye|banks and br- aes o'|bon- y D- oon how c-|an you bl- oom so fr-|esh and fair, how *|can ye s- ing ye|litt- le b- irds while I-|
{de} fed dBA | ABd d2 :: f | a2 b afd | a2 b afd | afd afd |{!fermata!b} !fermata!a2 g/f/{f} e2 A | %14
w: 'm so w- ear- y f-|u' o' care? *|You'll|break my h- eart ye|litt- le b- irds that|warb- le o- n the flow'-|ry thorn; It * *|
 d2"^qu.omitted" d ede |{de} (fg)f (ed)e |{de} fed dBA | ABd d2"^rpt sign added" :| %18
w: minds me o- ' De-|part- ed j- oys. De- part-|ed, nev- er t- o re-|turn * * *|

